brandFactory_export/2.Regular/Caja_2Regular.svg

<?xml version="1.0" encoding="UTF-8"?>
<svg width="24px" height="24px" viewBox="0 0 24 24" version="1.1" xmlns="http://www.w3.org/2000/svg" xmlns:xlink="http://www.w3.org/1999/xlink">
    <title>2.Regular/Caja_2Regular</title>
    <g id="Symbols" stroke="none" stroke-width="1" fill="none" fill-rule="evenodd">
        <g id="2.Regular/Caja_2Regular" fill="#5CB615" fill-rule="nonzero">
            <path d="M21.8823529,21.610084 C21.8823529,21.8957983 21.6705882,22.1478992 21.4285714,22.1478992 L2.18823529,22.1478992 C1.94621849,22.1478992 1.73781513,21.8957983 1.73781513,21.610084 L1.73781513,7.87226891 C1.73781513,7.58655462 1.94621849,7.33445378 2.18823529,7.33445378 L8.24201681,7.33445378 L8.24201681,10.2890756 C8.24201681,10.6957983 8.63193277,11.0252101 9.11260504,11.0252101 L14.1277311,11.0252101 C14.6084034,11.0252101 14.9983193,10.6957983 14.9983193,10.2890756 L14.994958,7.33445378 L21.4285714,7.33445378 C21.6705882,7.33445378 21.8823529,7.58655462 21.8823529,7.87226891 L21.8823529,21.610084 L21.8823529,21.610084 Z M3.41176471,1.85546218 C3.42857143,1.79831933 3.43529412,1.74117647 3.43529412,1.68403361 C3.43529412,1.5697479 3.54621849,1.47563025 3.68403361,1.47563025 L8.79663866,1.47563025 L8.33277311,5.86218487 L2.28235294,5.86218487 L3.41176471,1.85546218 Z M13.2605042,7.33445378 L13.2605042,9.54957983 L9.98319328,9.54957983 L9.98319328,7.33445378 L13.2605042,7.33445378 L13.2605042,7.33445378 Z M12.5915966,1.4789916 L13.1495798,5.85882353 L10.0739496,5.85882353 L10.5378151,1.4789916 L12.5915966,1.4789916 Z M20.1882353,1.68403361 C20.1882353,1.74453782 20.194958,1.80168067 20.2151261,1.85882353 L21.3747899,5.85882353 L14.897479,5.85882353 L14.3428571,1.47226891 L19.9394958,1.47226891 C20.0773109,1.47563025 20.1882353,1.56638655 20.1882353,1.68403361 Z M23.5865546,7.54285714 C23.6,7.45210084 23.6,7.36134454 23.5731092,7.26722689 L21.9260504,1.58319328 C21.8621849,0.702521008 20.9983193,0.00336134454 19.9428571,0.00336134454 L3.68403361,0.00336134454 C2.62521008,0.00336134454 1.75798319,0.705882353 1.70084034,1.58655462 L0.100840336,7.27394958 C0.0974789916,7.2907563 0.100840336,7.30420168 0.0974789916,7.3210084 C0.0403361345,7.49915966 0.00336134454,7.68403361 0.00336134454,7.8789916 L0.00336134454,21.6168067 C0.00336134454,22.7260504 0.98487395,23.6302521 2.19495798,23.6302521 L21.4352941,23.6302521 C22.6453782,23.6302521 23.6268908,22.7260504 23.6268908,21.6168067 L23.6268908,7.8789916 C23.6235294,7.75798319 23.6067227,7.65042017 23.5865546,7.54285714 Z" id="Caja_2Regular"></path>
        </g>
    </g>
</svg>

<svg width="24" height="24" viewBox="0 0 24 24" xmlns="http://www.w3.org/2000/svg"><path d="M21.882 21.61c0 .286-.211.538-.453.538H2.189c-.243 0-.451-.252-.451-.538V7.872c0-.285.208-.538.45-.538h6.054v2.955c0 .407.39.736.87.736h5.016c.48 0 .87-.33.87-.736l-.003-2.955h6.434c.242 0 .453.253.453.538V21.61zM3.412 1.855a.602.602 0 00.023-.171c0-.114.111-.208.249-.208h5.113l-.464 4.386h-6.05l1.129-4.007zm9.849 5.48V9.55H9.983V7.334h3.278zm-.67-5.856l.559 4.38h-3.076l.464-4.38h2.054zm7.597.205c0 .06.007.118.027.175l1.16 4h-6.478l-.554-4.387h5.596c.138.004.25.094.25.212zm3.399 5.859a.64.64 0 00-.014-.276l-1.647-5.684c-.064-.88-.928-1.58-1.983-1.58H3.684c-1.059 0-1.926.703-1.983 1.584L.1 7.274c-.004.017 0 .03-.004.047a1.816 1.816 0 00-.094.558v13.738c0 1.11.982 2.013 2.192 2.013h19.24c1.21 0 2.192-.904 2.192-2.013V7.879a2.091 2.091 0 00-.04-.336z" fill="#5CB615" fill-rule="nonzero"/></svg>
